dashboard/assets/pic-33-cb0b9d6e886347d1.svg

<svg xmlns="http://www.w3.org/2000/svg" viewBox="0 0 126.18 207.98"><defs><style>.cls-4{fill:#00b4eb;opacity:.5}</style></defs><g id="图层_2" data-name="图层 2"><g id="Layer_1" data-name="Layer 1"><path d="M72.7 105.46a5.15 5.15 0 107.29 0 5.14 5.14 0 00-7.29 0z" fill="#ff1235"/><path d="M0 208h63v-45a55.35 55.35 0 010-107.48V0L0 22z" fill="#00b4eb"/><path d="M76.34 59.43a49.83 49.83 0 1049.84 49.83 49.82 49.82 0 00-49.84-49.83zm0 93.06a43.23 43.23 0 1143.23-43.23 43.22 43.22 0 01-43.23 43.23z" opacity=".7" fill="#00b4eb"/><path class="cls-4" d="M76.34 74a35.22 35.22 0 1035.23 35.22A35.22 35.22 0 0076.34 74zm0 65.78a30.56 30.56 0 1130.56-30.56 30.56 30.56 0 01-30.56 30.6z"/><path d="M76.34 85.88a23.38 23.38 0 1023.38 23.38 23.37 23.37 0 00-23.38-23.38zm0 43.66a20.28 20.28 0 1120.28-20.28 20.28 20.28 0 01-20.28 20.28z" opacity=".4" fill="#00b4eb"/><path class="cls-4" d="M76.34 97a12.29 12.29 0 1012.29 12.29A12.29 12.29 0 0076.34 97zm0 23A10.66 10.66 0 1187 109.26a10.66 10.66 0 01-10.66 10.66z"/></g></g></svg>

<svg xmlns="http://www.w3.org/2000/svg" viewBox="0 0 126.18 207.98"><defs><style>.cls-1{fill:#ff1235;}.cls-2,.cls-3,.cls-4,.cls-5{fill:#00b4eb;}.cls-3{opacity:0.7;}.cls-4{opacity:0.5;}.cls-5{opacity:0.4;}</style></defs><title>资源 3</title><g id="图层_2" data-name="图层 2"><g id="Layer_1" data-name="Layer 1"><path class="cls-1" d="M72.7,105.46a5.15,5.15,0,1,0,7.29,0A5.14,5.14,0,0,0,72.7,105.46Z"/><path class="cls-2" d="M0,208H63V163A55.35,55.35,0,0,1,63,55.52V0L0,22Z"/><path class="cls-3" d="M76.34,59.43a49.83,49.83,0,1,0,49.84,49.83A49.82,49.82,0,0,0,76.34,59.43Zm0,93.06a43.23,43.23,0,1,1,43.23-43.23A43.22,43.22,0,0,1,76.34,152.49Z"/><path class="cls-4" d="M76.34,74a35.22,35.22,0,1,0,35.23,35.22A35.22,35.22,0,0,0,76.34,74Zm0,65.78a30.56,30.56,0,1,1,30.56-30.56A30.56,30.56,0,0,1,76.34,139.82Z"/><path class="cls-5" d="M76.34,85.88a23.38,23.38,0,1,0,23.38,23.38A23.37,23.37,0,0,0,76.34,85.88Zm0,43.66a20.28,20.28,0,1,1,20.28-20.28A20.28,20.28,0,0,1,76.34,129.54Z"/><path class="cls-4" d="M76.34,97a12.29,12.29,0,1,0,12.29,12.29A12.29,12.29,0,0,0,76.34,97Zm0,23A10.66,10.66,0,1,1,87,109.26,10.66,10.66,0,0,1,76.34,119.92Z"/></g></g></svg>
